X:1
T:After You’ve Gone
T:CREAMER & LAYTON
T:C
T:MED. SWING
L:1/8
M:4/4
K:Eb
V:1 treble nm="MusicXML Part"
V:1
"Abmaj7""^A" cefg- g4 | z fgf"Db9" g f3 |"Ebmaj7" GBcd- d4 |"Gm7" z cdc"C9" d c3 |"F9" c g2 g- g4 | %5
"Bb9" c f2 f- f4 |"Eb6" z BcB dBcB |"Eb7" z e2 G Bed_d ||"Abmaj7""^B" cefg- g4 | z fgf"Db9" g f3 | %10
"Ebmaj7" GBcd- d4 |"Gm7" z cdc"C9" d c3 |"Fm7" a4"C7" g4 |"Fm7" z f=Bc g2"Db9" f2 | %14
"Ebmaj7" z ^fge"Dm7" =f=e"G7"fd |"Cm7" e2"Cm7/Bb" ^FG"Abdim7" d2 c2 |"Eb6/Bb" Bceg-"C7" g4 | %17
"Fm7" z ABd"Bb7" f2 g2 |"Eb6" e8 |"Eb7""^(" z4 z ed_d |] %20

